X:52
T:Morseana #1
C:Mozart Mello
N:TablEdited by rik dias
L:1/8
Q:1/4=69
M:4/4
K:C
z8 | c/C/D/E/ F/G/c/B/ A/D/E/^F/ G/G,/A,/B,/ | D/G/A/B/ c/E/F/B/ A/B,/C/G/ ^F/C/F/G/ | 
A/B,/^C/^D/ E/e/B/d/ ^G/F/E/=D/ =C/E/^F/G/ | A/A,/B,/C/ F/G,/A,/B,/ C/E/F/G,/ ^G,/E/B/d/ | 
c/A,/D/E/ F/c/f/e/ d/^G/A/B/ E/e/^g/a/ | g/c/G/B/ A/d/e/^f/ e/^G/A/B/ ^C/e/a/^g/ | 
^f/_B,/^c/e/ A,/B/c/^d/ e/B/^G/D/ ^C/A/B/c/ | e/B,/^G/A/ B/^C/A/B/ ^c/^D/B/c/ ^d/e/^f/B,/ | 
E/e/^g/a/ =g/c/G/B/ A/d/e/^f/ e/^G/A/B/ | ^C/e/a/^g/ ^f/_B,/^c/e/ A,/B/c/^d/ e/B/^G/A,/ | 
^C/A/B/^c/ e/B,/^G/A/ B/C/A/B/ c/^D/B/c/ | ^d/e/^f/d/ e/B/^G/B/ E4 | z8 | z8 | 
z8 | z8 | z8 | 
 


